local/share/icons/dracula-icons-main/scalable/apps/gnome-paint.svg

<?xml version="1.0" encoding="UTF-8"?>
<svg xmlns="http://www.w3.org/2000/svg" xmlns:xlink="http://www.w3.org/1999/xlink" width="64" height="64" viewBox="0 0 64 64">
<path fill="none" stroke-width="0.26458" stroke-linecap="butt" stroke-linejoin="miter" stroke="rgb(0%, 0%, 0%)" stroke-opacity="0.13725" stroke-miterlimit="4" d="M 8.507812 1.324219 C 5.949219 1.289062 3.570312 2.644531 2.28125 4.867188 C 0.996094 7.089844 0.996094 9.839844 2.28125 12.066406 C 3.570312 14.289062 5.949219 15.644531 8.507812 15.609375 C 10.46875 15.609375 10.101562 13.96875 10.59375 13.347656 C 10.96875 12.875 11.480469 12.386719 12.074219 12.324219 C 12.769531 12.25 13.125 12.5625 13.671875 12.550781 C 14.515625 12.53125 15.113281 11.867188 15.4375 10.984375 C 15.644531 10.425781 15.609375 8.960938 15.609375 8.46875 C 15.609375 4.519531 12.429688 1.324219 8.507812 1.324219 Z M 13.144531 9.023438 C 13.75 9.023438 14.238281 9.515625 14.238281 10.125 C 14.238281 10.730469 13.75 11.222656 13.144531 11.222656 C 12.542969 11.222656 12.054688 10.730469 12.054688 10.125 C 12.054688 9.515625 12.542969 9.023438 13.144531 9.023438 Z M 13.144531 9.023438 "/>
<path fill-rule="nonzero" fill="rgb(100%, 100%, 100%)" fill-opacity="1" d="M 8.507812 1.324219 C 5.949219 1.289062 3.570312 2.644531 2.28125 4.867188 C 0.996094 7.089844 0.996094 9.839844 2.28125 12.066406 C 3.570312 14.289062 5.949219 15.644531 8.507812 15.609375 C 10.46875 15.609375 10.101562 13.96875 10.59375 13.347656 C 10.96875 12.875 11.480469 12.386719 12.074219 12.324219 C 12.769531 12.25 13.125 12.5625 13.671875 12.550781 C 14.515625 12.53125 15.113281 11.867188 15.4375 10.984375 C 15.644531 10.425781 15.609375 8.960938 15.609375 8.46875 C 15.609375 4.519531 12.429688 1.324219 8.507812 1.324219 Z M 13.144531 9.023438 C 13.75 9.023438 14.238281 9.515625 14.238281 10.125 C 14.238281 10.730469 13.75 11.222656 13.144531 11.222656 C 12.542969 11.222656 12.054688 10.730469 12.054688 10.125 C 12.054688 9.515625 12.542969 9.023438 13.144531 9.023438 Z M 13.144531 9.023438 "/>
<path fill-rule="nonzero" fill="rgb(100%, 100%, 100%)" fill-opacity="1" d="M 8.507812 1.324219 C 5.949219 1.289062 3.570312 2.644531 2.28125 4.867188 C 0.996094 7.089844 0.996094 9.839844 2.28125 12.066406 C 3.570312 14.289062 5.949219 15.644531 8.507812 15.609375 C 10.46875 15.609375 10.101562 13.96875 10.59375 13.347656 C 10.96875 12.875 11.480469 12.386719 12.074219 12.324219 C 12.769531 12.25 13.125 12.5625 13.671875 12.550781 C 14.515625 12.53125 15.113281 11.867188 15.4375 10.984375 C 15.644531 10.425781 15.609375 8.960938 15.609375 8.46875 C 15.609375 4.519531 12.429688 1.324219 8.507812 1.324219 Z M 13.144531 9.023438 C 13.75 9.023438 14.238281 9.515625 14.238281 10.125 C 14.238281 10.730469 13.75 11.222656 13.144531 11.222656 C 12.542969 11.222656 12.054688 10.730469 12.054688 10.125 C 12.054688 9.515625 12.542969 9.023438 13.144531 9.023438 Z M 13.144531 9.023438 "/>
<path fill-rule="nonzero" fill="rgb(100%, 55.686275%, 23.921569%)" fill-opacity="1" d="M 4.96875 10.832031 C 4.96875 10.832031 6.316406 11.195312 6.976562 10.820312 C 7.640625 10.441406 7.804688 9.804688 7.566406 9.273438 C 7.332031 8.738281 6.988281 8.671875 6.503906 8.683594 C 6.019531 8.691406 5.546875 8.871094 5.453125 9.34375 C 5.359375 9.816406 5.546875 10.191406 5.394531 10.5 C 5.316406 10.675781 5.15625 10.796875 4.96875 10.832031 Z M 4.96875 10.832031 "/>
<path fill-rule="nonzero" fill="rgb(100%, 81.960784%, 23.921569%)" fill-opacity="1" d="M 6.148438 9.933594 C 7.03125 9.996094 7.535156 9.316406 7.375 9.011719 C 7.210938 8.707031 6.976562 8.664062 6.644531 8.671875 C 6.308594 8.679688 5.984375 8.78125 5.921875 9.050781 C 5.855469 9.320312 5.828125 9.472656 5.929688 9.902344 C 6.03125 9.742188 6.199219 9.628906 6.386719 9.597656 C 6.355469 9.71875 6.257812 9.824219 6.148438 9.933594 Z M 6.148438 9.933594 "/>
<path fill-rule="nonzero" fill="rgb(20%, 20%, 20%)" fill-opacity="1" d="M 11.800781 5.21875 L 8.074219 9.179688 C 7.902344 9.363281 7.644531 9.398438 7.515625 9.269531 L 7.046875 8.800781 C 6.917969 8.671875 6.953125 8.417969 7.136719 8.246094 L 11.101562 4.515625 C 11.285156 4.34375 11.527344 4.300781 11.65625 4.429688 L 11.890625 4.664062 C 12.019531 4.792969 11.972656 5.035156 11.800781 5.21875 Z M 11.800781 5.21875 "/>
</svg>

<svg width="64" height="64" version="1.1" viewBox="0 0 16.933 16.933" xmlns="http://www.w3.org/2000/svg">
 <path d="m8.5087 1.3234a7.1002 7.1436 0 1 0 0 14.286c1.9608 0 1.5924-1.6405 2.0867-2.2635 0.37255-0.4714 0.88546-0.95733 1.4799-1.0207 0.69351-0.07476 1.0495 0.23881 1.5965 0.22532 0.84212-0.02077 1.4417-0.68321 1.7658-1.5679 0.20537-0.55758 0.17028-2.0226 0.17028-2.5158 0-3.9456-3.1786-7.1436-7.1002-7.1436zm4.6368 7.7012a1.0919 1.0985 0 1 1 0 2.1971 1.0919 1.0985 0 0 1 0-2.1971z" fill="#fff" stroke="#000" stroke-opacity=".13725" stroke-width=".26458" style="paint-order:stroke markers fill"/>
 <path d="m8.5087 1.3234a7.1002 7.1436 0 1 0 0 14.286c1.9608 0 1.5924-1.6405 2.0867-2.2635 0.37255-0.4714 0.88546-0.95733 1.4799-1.0207 0.69351-0.07476 1.0495 0.23881 1.5965 0.22532 0.84212-0.02077 1.4417-0.68321 1.7658-1.5679 0.20537-0.55758 0.17028-2.0226 0.17028-2.5158 0-3.9456-3.1786-7.1436-7.1002-7.1436zm4.6368 7.7012a1.0919 1.0985 0 1 1 0 2.1971 1.0919 1.0985 0 0 1 0-2.1971z" fill="#fff" style="paint-order:stroke markers fill"/>
 <path d="M4.97 10.831s1.346.366 2.008-.012c.661-.378.826-1.015.59-1.547s-.579-.602-1.063-.59c-.484.011-.957.188-1.051.66-.095.473.094.851-.06 1.158a.571.571 0 0 1-.424.331z" fill="#ff8e3d"/>
 <path d="M6.15 9.935c.88.06 1.387-.62 1.224-.924-.162-.305-.397-.345-.73-.339-.334.007-.658.109-.723.38-.065.27-.093.422.008.85a.669.669 0 0 1 .457-.303c-.029.118-.13.224-.236.336z" fill="#ffd13d"/>
 <path d="M11.802 5.217L8.074 9.18c-.172.182-.431.218-.56.088l-.466-.466c-.129-.13-.094-.383.089-.556l3.965-3.729c.183-.172.424-.216.554-.087l.233.233c.13.13.085.372-.087.554z" fill="#333" paint-order="stroke markers fill"/>
</svg>
